X: 26912
T: Miryang Arirang
R: slip jig
M: 9/8
K: Eminor
|"Em"E2e ded B3|"Em"e2e ded B3|"Em"e2e ded BAB|"D"d3 ded "Em"B3|
"Em"BB2 A2G EG2|"Em"BB2 "D"A2d BA2|"Em"G3 GAG "D"ED2|"Em"E3 E2G E3|
"Em"E2G E2G E3|"Em"E2G E2G E3|"Em"ee2 ded BAB|"D"e3 efe "Em"B3|
"Em"B B2 A2G EG2|"Em"BB2 "D"A2d B2A|"Em"G3 GAG "D"ED2|"Em"E3 E2G E3||

